X:1
T:Complainer
T:William Walker, 1835 G Major         Treble, Alto, & Bass by William Hauser, 1848
T:Transcribed from Hesperian Harp, 1848.
T:Anonymous author, first published in Southern Harmony, 1835                    76. 76. 76. 76. 
%%score [ 1 2 3 4 ]
L:1/8
Q:1/4=110
M:4/4
K:G
V:1 treble nm="Tr." snm="Tr."
V:2 treble nm="A." snm="A."
V:3 treble-8 nm="T." snm="T."
V:4 bass nm="B." snm="B."
V:1
"_1.  I   am  a great complainer,  That bears the name of Christ;  Come, all ye Zion's-mourners,   And  listen  to  my   cries:            I’ve    many   sore    temptations,   And\n2. O  Lord of  life  and  glory,   My  sins    to    me   re – veal;   And  by thy  love  and power,    My sin-sick soul be healed.          I  thought  my  war – fare  o –ver,   No\n" G4 | %1
 B2 B2 e2 d2 | c4 B2 d2 | g3 f e2 d2 | B4 d4 | B2 B2 e2 d2 | A4 G2 B2 | d3 e d2 d2 | B8 |: z4 B4 | %10
 B2 B2 Bc d2 | B4 d2 d2 | %12
"_1. sorrows   to     my   soul;    I        feel  my  faith  de –cli –ning,   And  my  af – fec –  tions  cold.\n2. trou – ble  I  should  see,   But now I'm like the lonely dove  That mourns on the wavering tree.\n" g3 f e2 d2 | %13
 e4 A4 | d2 d2 d2 B2 | c4 B2 d2 | g3 e d2 d2 | [Bd]8 :| %18
V:2
"_3.  I  wish  it  was with me now   As   in    the  days  of  old,  When the glorious light of Jesus   Was flowing in my soul;              But   now  l    am    dis–tres–sed,   And" D4 | %1
 D2 D2 G2 G2 | A4 B2 G2 | G3 G A2 B2 | E4 D4 | D2 D2 B2 G2 | A4 G2 E2 | D3 E D2 D2 | G8 |: z4 G4 | %10
 G2 G2 G2 F2 | G4 B2 B2 | %12
"_3.  no   re – lief   can   find,   With  a  hard  de–ceit–ful  heart,  And a wretched wandering mind." G3 B A2 G2 | %13
 E4 D4 | G2 G2 G2 G2 | A4 G2 G2 | G3 G F2 F2 | G8 :| %18
V:3
"_4.  It is great pride and passion,   Be – set  me   on   my  way;   So   I  am  filled  with  folly,   And  so   neglect    to   pray;          While  others  run   re – joi – cing,   And\n5. \nI read that peace and happiness Meet Christians in their way, That bear their cross with meekness, And don't neglect to pray;          \nBut      I,   a  thousand  ob – jects     Be–\n" D4 | %1
 G2 G2 B2 d2 | e4 d2 B2 | d3 B A2 G2 | B4 D4 | G2 G2 B2 d2 | e4 d2 B2 | d3 B A2 A2 | G8 |: z4 d4 | %10
 e2 d2 de f2 | g4 d2 B2 | %12
"_4. seem  to   lose   no  time,     I      am  so  weak  I     stum – ble,   And  so    I’m   left  be – hind. \n5. –set    me  on    my  way,     So    I    am  filled  with  fol  –  ly,    And  so    ne – glect  to   pray.\n""______________________________________________________________________________________________________________________\nThis tune was first published by William Walker in his Southern Harmony, 1835, for three parts; Walker added an Alto part in 1867." d3 B A2 G2 | %13
 B4 D4 | G2 G2 B2 d2 | e4 d2 B2 | d3 B A2 A2 | G8 :| %18
V:4
 G,,4 | G,,2 G,,2 G,2 B,2 | A,4 G,2 G,2 | D,3 E, D,2 D,2 | E,4 D,4 | G,,2 G,,2 G,2 B,2 | %6
 A,4 G,2 G,2 | D,3 E, D,2 D,2 | [G,,G,]8 |: z4 G,4 | E,2 G,2 G,A, B,2 | D4 B,2 G,2 | %12
 D,3 E, D,2 D,2 | E,4 D,4 | B,,2 B,,2 G,,2 B,,2 | E,4 G,2 G,2 | D,3 E, D,2 D,2 | [G,,G,]8 :| %18

